Numix/48/devices/input-gaming.svg

<?xml version="1.0" encoding="UTF-8" standalone="no"?>
<svg
   xmlns:dc="http://purl.org/dc/elements/1.1/"
   xmlns:cc="http://creativecommons.org/ns#"
   xmlns:rdf="http://www.w3.org/1999/02/22-rdf-syntax-ns#"
   xmlns:svg="http://www.w3.org/2000/svg"
   xmlns="http://www.w3.org/2000/svg"
   xmlns:sodipodi="http://sodipodi.sourceforge.net/DTD/sodipodi-0.dtd"
   xmlns:inkscape="http://www.inkscape.org/namespaces/inkscape"
   viewBox="0 0 48 48"
   id="svg2"
   version="1.1"
   inkscape:version="0.91 r"
   width="100%"
   height="100%"
   sodipodi:docname="input-gaming.svg">
  <metadata
     id="metadata12">
    <rdf:RDF>
      <cc:Work
         rdf:about="">
        <dc:format>image/svg+xml</dc:format>
        <dc:type
           rdf:resource="http://purl.org/dc/dcmitype/StillImage" />
        <dc:title />
      </cc:Work>
    </rdf:RDF>
  </metadata>
  <defs
     id="defs10" />
  <sodipodi:namedview
     pagecolor="#ffffff"
     bordercolor="#666666"
     borderopacity="1"
     objecttolerance="10"
     gridtolerance="10"
     guidetolerance="10"
     inkscape:pageopacity="0"
     inkscape:pageshadow="2"
     inkscape:window-width="1920"
     inkscape:window-height="1056"
     id="namedview8"
     showgrid="true"
     inkscape:zoom="9.8333335"
     inkscape:cx="48.788842"
     inkscape:cy="7.6755614"
     inkscape:window-x="0"
     inkscape:window-y="24"
     inkscape:window-maximized="1"
     inkscape:current-layer="svg2">
    <inkscape:grid
       type="xygrid"
       id="grid2989" />
  </sodipodi:namedview>
  <path
     style="fill:#deddc9;fill-opacity:1;fill-rule:evenodd;stroke:none;stroke-width:1px;stroke-linecap:butt;stroke-linejoin:miter;stroke-opacity:1"
     d="m 13.848633,10.50377 c -1.078845,0.04424 -1.966762,0.506049 -2.578125,0.969746 C 7.6559055,14.215042 4.5,25.65106 4.5,31.703389 c 0,6.05233 1.3913775,5.795031 2.598633,5.795031 1.207254,0 2.7251055,-0.830198 4.051758,-1.998084 C 14.812829,32.276201 16.499848,29 20.141601,29 l 7.716798,0 c 3.641752,0 5.328772,3.276201 8.99121,6.500336 1.326653,1.167886 2.844504,1.998084 4.051758,1.998084 1.207255,0 2.598633,0.257299 2.598633,-5.795031 C 43.5,25.65106 40.344094,14.215042 36.729492,11.473516 35.751311,10.731602 34.067769,9.9926802 32.018554,10.96667 30.644407,11.6198 29.416171,12 27.621093,12 l -7.242186,0 c -1.795078,0 -3.023315,-0.3802 -4.397461,-1.03333 -0.768456,-0.365247 -1.485506,-0.489442 -2.132813,-0.4629 z"
     id="path4200"
     inkscape:connector-curvature="0"
     sodipodi:nodetypes="sssssccsssssccss" />
  <ellipse
     style="opacity:1;fill:#3b3b3b;fill-opacity:1;fill-rule:nonzero;stroke:none;stroke-width:1.5;stroke-linecap:round;stroke-linejoin:miter;stroke-miterlimit:4;stroke-dasharray:none;stroke-dashoffset:0;stroke-opacity:1"
     id="path4208"
     cx="14.5"
     cy="19.999935"
     rx="3.5"
     ry="3.5000658" />
  <ellipse
     style="opacity:1;fill:#df8003;fill-opacity:1;fill-rule:nonzero;stroke:none;stroke-width:1.5;stroke-linecap:round;stroke-linejoin:miter;stroke-miterlimit:4;stroke-dasharray:none;stroke-dashoffset:0;stroke-opacity:1"
     id="path4210"
     cx="34.5"
     cy="16.999971"
     rx="1.5"
     ry="1.5000283" />
  <ellipse
     cy="19.999971"
     cx="37.5"
     id="circle4212"
     style="opacity:1;fill:#e45146;fill-opacity:1;fill-rule:nonzero;stroke:none;stroke-width:1.5;stroke-linecap:round;stroke-linejoin:miter;stroke-miterlimit:4;stroke-dasharray:none;stroke-dashoffset:0;stroke-opacity:1"
     rx="1.5"
     ry="1.5000283" />
  <ellipse
     style="opacity:1;fill:#68bf45;fill-opacity:1;fill-rule:nonzero;stroke:none;stroke-width:1.5;stroke-linecap:round;stroke-linejoin:miter;stroke-miterlimit:4;stroke-dasharray:none;stroke-dashoffset:0;stroke-opacity:1"
     id="circle4214"
     cx="34.5"
     cy="22.999971"
     rx="1.5"
     ry="1.5000283" />
  <ellipse
     cy="19.999971"
     cx="31.5"
     id="circle4216"
     style="opacity:1;fill:#5b6dc1;fill-opacity:1;fill-rule:nonzero;stroke:none;stroke-width:1.5;stroke-linecap:round;stroke-linejoin:miter;stroke-miterlimit:4;stroke-dasharray:none;stroke-dashoffset:0;stroke-opacity:1"
     rx="1.5"
     ry="1.5000283" />
  <ellipse
     style="opacity:1;fill:none;fill-opacity:1;fill-rule:nonzero;stroke:#3b3b3b;stroke-width:0.5;stroke-linecap:round;stroke-linejoin:miter;stroke-miterlimit:4;stroke-dasharray:none;stroke-dashoffset:0;stroke-opacity:1"
     id="path4218"
     cx="23.999977"
     cy="20"
     rx="1.2499774"
     ry="1.25" />
  <ellipse
     style="opacity:1;fill:#3b3b3b;fill-opacity:1;fill-rule:nonzero;stroke:none;stroke-width:1.5;stroke-linecap:round;stroke-linejoin:miter;stroke-miterlimit:4;stroke-dasharray:none;stroke-dashoffset:0;stroke-opacity:1"
     id="circle4220"
     cx="21"
     cy="19.999981"
     rx="1"
     ry="1.0000188" />
  <ellipse
     cy="19.999981"
     cx="27"
     id="circle4222"
     style="opacity:1;fill:#3b3b3b;fill-opacity:1;fill-rule:nonzero;stroke:none;stroke-width:1.5;stroke-linecap:round;stroke-linejoin:miter;stroke-miterlimit:4;stroke-dasharray:none;stroke-dashoffset:0;stroke-opacity:1"
     rx="1"
     ry="1.0000188" />
  <path
     style="opacity:0.4;fill:#ffffff;fill-opacity:1;fill-rule:nonzero;stroke:none;stroke-width:0.5;stroke-linecap:round;stroke-linejoin:miter;stroke-miterlimit:4;stroke-dasharray:none;stroke-dashoffset:0;stroke-opacity:1"
     d="M 34.152344 10.503906 C 34.103252 10.50191 34.049881 10.509991 34 10.509766 L 34 32.697266 C 34.846282 33.580978 35.755528 34.536853 36.849609 35.5 C 37.221413 35.827308 37.609207 36.117439 38 36.380859 L 38 12.810547 C 37.585899 12.258909 37.160306 11.800152 36.728516 11.472656 C 36.117153 11.00896 35.231839 10.547804 34.152344 10.503906 z "
     id="rect4218" />
</svg>

<svg xmlns="http://www.w3.org/2000/svg" viewBox="0 0 48 48">
 <path d="m 13.849 10.504 c -1.079 0.044 -1.967 0.506 -2.578 0.97 c -3.615 2.742 -6.771 14.178 -6.771 20.23 c 0 6.05 1.391 5.795 2.599 5.795 1.207 0 2.725 -0.83 4.052 -1.998 c 3.662 -3.224 5.349 -6.5 8.991 -6.5 l 7.717 0 c 3.642 0 5.329 3.276 8.991 6.5 1.327 1.168 2.845 1.998 4.052 1.998 1.207 0 2.599 0.257 2.599 -5.795 c 0 -6.05 -3.156 -17.488 -6.771 -20.23 -0.978 -0.742 -2.662 -1.481 -4.711 -0.507 -1.374 0.653 -2.602 1.033 -4.397 1.033 l -7.242 0 c -1.795 0 -3.02 -0.38 -4.397 -1.033 -0.768 -0.365 -1.486 -0.489 -2.133 -0.463 z" style="fill:#deddc9;fill-opacity:1;stroke:none;fill-rule:evenodd"/>
 <ellipse cx="14.5" cy="20" rx="3.5" ry="3.5" style="fill:#3b3b3b;opacity:1;fill-opacity:1;stroke:none;fill-rule:nonzero"/>
 <ellipse cx="34.5" cy="17" rx="1.5" ry="1.5" style="fill:#df8003;opacity:1;fill-opacity:1;stroke:none;fill-rule:nonzero"/>
 <ellipse cy="20" cx="37.5" rx="1.5" ry="1.5" style="fill:#e45146;opacity:1;fill-opacity:1;stroke:none;fill-rule:nonzero"/>
 <ellipse cx="34.5" cy="23" rx="1.5" ry="1.5" style="fill:#68bf45;opacity:1;fill-opacity:1;stroke:none;fill-rule:nonzero"/>
 <ellipse cy="20" cx="31.5" rx="1.5" ry="1.5" style="fill:#5b6dc1;opacity:1;fill-opacity:1;stroke:none;fill-rule:nonzero"/>
 <ellipse cx="24" cy="20" rx="1.25" ry="1.25" style="stroke-dasharray:none;stroke-opacity:1;fill:none;opacity:1;stroke-miterlimit:4;fill-opacity:1;stroke:#3b3b3b;fill-rule:nonzero;stroke-linecap:round;stroke-linejoin:miter;stroke-width:0.5;stroke-dashoffset:0"/>
 <ellipse cx="21" cy="20" rx="1" ry="1" style="fill:#3b3b3b;opacity:1;fill-opacity:1;stroke:none;fill-rule:nonzero"/>
 <ellipse cy="20" cx="27" rx="1" ry="1" style="fill:#3b3b3b;opacity:1;fill-opacity:1;stroke:none;fill-rule:nonzero"/>
 <path d="m 34.15 10.504 c -0.049 -0.002 -0.102 0.006 -0.152 0.006 l 0 22.19 c 0.846 0.884 1.756 1.84 2.85 2.803 c 0.372 0.327 0.76 0.617 1.15 0.881 l 0 -23.57 c -0.414 -0.552 -0.84 -1.01 -1.271 -1.338 c -0.611 -0.464 -1.497 -0.925 -2.576 -0.969 z" style="fill:#fff;opacity:0.4;fill-opacity:1;stroke:none;fill-rule:nonzero"/>
</svg>
